X:11817
T:Niel Gow's Lament for the Death of His Second Wife
R:Slow Air
C:Niel Gow
S:Toby A. Rider, Los Angeles Scottish Fiddler's Association
M:6/8
L:1/8
K:D
D/2B,/2| A,>B,D ~D>ED| (EFA) B2 d| (AFD) (E>DE)| ({DE}F)DB, B,2 D/2B,/2|
 A,>B,D D>ED| (EF)A d2 c/2B/2|!
 (AFD) {=C} B,2  A,| B,DD D2:| (A/4B/4c/2)| (dfd) (ecA)| (B/2A/2)(B/2c/2
)({Bc}d) (B/2A/2)(G/2F/2)(E/2D/2)| E>DE ({DE}F)DB,|!
 A,DD D2 (A/4B/4c/2)| (df)d (ec)A|  (B/2A/2)(B/2c/2)({Bc}d)  (B/2A/2)(G/
2F/2)(E/2D/2)| (F/2D/2)(A/2F/2)(d/2A/2) (B/2A/2)(G/2F/2)(E/2D/2)| ({DE}F
)EE E2 D/2B,/2|! A,>B,D D>ED| (EF)A d2 c/2B/2| (AF)D {=C} B,2  A,| B,DD
D2||
